apps/16/kodi.svg

<?xml version="1.0" encoding="UTF-8" standalone="no"?>
<!-- Created with Inkscape (http://www.inkscape.org/) -->

<svg
   xmlns:dc="http://purl.org/dc/elements/1.1/"
   xmlns:cc="http://creativecommons.org/ns#"
   xmlns:rdf="http://www.w3.org/1999/02/22-rdf-syntax-ns#"
   xmlns:svg="http://www.w3.org/2000/svg"
   xmlns="http://www.w3.org/2000/svg"
   xmlns:sodipodi="http://sodipodi.sourceforge.net/DTD/sodipodi-0.dtd"
   xmlns:inkscape="http://www.inkscape.org/namespaces/inkscape"
   width="15.999998"
   height="15.999998"
   id="svg13094"
   version="1.1"
   inkscape:version="0.48.4 r9939"
   sodipodi:docname="kodi.svg">
  <sodipodi:namedview
     id="base"
     pagecolor="#ffffff"
     bordercolor="#666666"
     borderopacity="1.0"
     inkscape:pageopacity="0.0"
     inkscape:pageshadow="2"
     inkscape:zoom="45.254834"
     inkscape:cx="8.8461134"
     inkscape:cy="8.2271369"
     inkscape:document-units="px"
     inkscape:current-layer="layer1"
     showgrid="true"
     inkscape:snap-bbox="true"
     inkscape:bbox-paths="true"
     inkscape:bbox-nodes="true"
     inkscape:snap-bbox-edge-midpoints="true"
     inkscape:snap-bbox-midpoints="true"
     inkscape:object-paths="true"
     inkscape:snap-intersection-paths="true"
     inkscape:object-nodes="true"
     inkscape:snap-smooth-nodes="true"
     inkscape:snap-midpoints="true"
     inkscape:snap-object-midpoints="true"
     inkscape:snap-center="true"
     showguides="false"
     inkscape:guide-bbox="true"
     inkscape:window-width="1920"
     inkscape:window-height="1022"
     inkscape:window-x="-5"
     inkscape:window-y="23"
     inkscape:window-maximized="1"
     inkscape:snap-global="true"
     fit-margin-top="0"
     fit-margin-left="0"
     fit-margin-right="0"
     fit-margin-bottom="0"
     showborder="true"
     inkscape:showpageshadow="false">
    <sodipodi:guide
       orientation="0,1"
       position="-25.000005,930.61286"
       id="guide4700" />
    <sodipodi:guide
       orientation="0,1"
       position="576.71887,328.89388"
       id="guide4702" />
    <sodipodi:guide
       orientation="1,0"
       position="576.71899,489.70395"
       id="guide4706" />
    <sodipodi:guide
       orientation="1,0"
       position="54.999996,930.61286"
       id="guide4708" />
    <sodipodi:guide
       orientation="0,1"
       position="-25.000005,850.61296"
       id="guide4710" />
    <sodipodi:guide
       orientation="0,1"
       position="536.71887,408.8938"
       id="guide4712" />
    <sodipodi:guide
       orientation="1,0"
       position="496.71887,408.8938"
       id="guide4714" />
    <inkscape:grid
       type="xygrid"
       id="grid3216"
       empspacing="5"
       visible="true"
       enabled="true"
       snapvisiblegridlinesonly="true"
       originx="-24.999951px"
       originy="-219.00005px" />
    <sodipodi:guide
       orientation="-0.70710664,0.70710692"
       position="4.0000502,-246.00005"
       id="guide3847" />
    <sodipodi:guide
       orientation="0.70710594,0.70710762"
       position="5.0000502,-245.00005"
       id="guide3849" />
    <sodipodi:guide
       orientation="-0.70710681,0.70710676"
       position="7.0000502,-212.00005"
       id="guide3851" />
  </sodipodi:namedview>
  <defs
     id="defs13096" />
  <metadata
     id="metadata13099">
    <rdf:RDF>
      <cc:Work
         rdf:about="">
        <dc:format>image/svg+xml</dc:format>
        <dc:type
           rdf:resource="http://purl.org/dc/dcmitype/StillImage" />
        <dc:title />
      </cc:Work>
    </rdf:RDF>
  </metadata>
  <g
     transform="translate(9379.308,-4843.1988)"
     id="layer1"
     inkscape:groupmode="layer"
     inkscape:label="Camada 1">
    <path
       id="path3906"
       d="m -9371.308,4844.1988 c -0.2332,0 -0.4775,0.1025 -0.6563,0.2812 l -1.3437,1.3438 0,5.375 4.6875,-4.6875 -2.0313,-2.0313 c -0.1787,-0.1787 -0.423,-0.2812 -0.6562,-0.2812 z m -4,3.625 -2.7188,2.7187 c -0.3574,0.3575 -0.3574,0.9551 0,1.3125 l 2.7188,2.7188 0,-6.75 z m 8.0937,0.094 -2.7812,2.7813 3.2812,3.2812 2.125,-2.125 c 0.3575,-0.3574 0.3575,-0.955 0,-1.3125 l -2.625,-2.625 z m -4.1875,4.1875 -1.9062,1.9375 0,2.5313 1.3437,1.3437 c 0.3575,0.3575 0.9551,0.3575 1.3125,0 l 2.5313,-2.5312 -3.2813,-3.2813 z"
       style="color:#000000;fill:#27303a;fill-opacity:0.753280819999999968;fill-rule:nonzero;stroke:none;stroke-width:0.07502839;marker:none;visibility:visible;display:inline;overflow:visible;enable-background:accumulate"
       inkscape:connector-curvature="0" />
    <path
       style="font-size:medium;font-style:normal;font-variant:normal;font-weight:normal;font-stretch:normal;text-indent:0;text-align:start;text-decoration:none;line-height:normal;letter-spacing:normal;word-spacing:normal;text-transform:none;direction:ltr;block-progression:tb;writing-mode:lr-tb;text-anchor:start;baseline-shift:baseline;color:#000000;fill:#f1f3f5;fill-opacity:0.90288714000000003;fill-rule:nonzero;stroke:none;stroke-width:2;marker:none;visibility:visible;display:inline;overflow:visible;enable-background:accumulate;font-family:Sans;-inkscape-font-specification:Sans"
       d="M 8 0 C 7.4737 0 6.9907 0.1968 6.625 0.5625 L 5.28125 1.90625 L 5 2.21875 L 3.28125 3.90625 L 0.5625 6.625 C -0.189 7.3765 -0.189 8.6235 0.5625 9.375 L 3.28125 12.09375 L 5 13.78125 L 5.28125 14.09375 L 6.625 15.4375 C 7.3765 16.189 8.6235 16.189 9.375 15.4375 L 11.90625 12.90625 L 12.59375 12.1875 L 13.3125 11.5 L 15.4375 9.375 C 16.189 8.6235 16.189 7.3765 15.4375 6.625 L 12.8125 4 L 12.09375 3.3125 L 11.40625 2.59375 L 9.4375 0.65625 L 9.375 0.5625 C 9.0093 0.1968 8.5263 0 8 0 z M 8 1 C 8.2332 1 8.47755 1.10255 8.65625 1.28125 L 10.6875 3.3125 L 6 8 L 6 2.625 L 7.34375 1.28125 C 7.52255 1.10255 7.7668 1 8 1 z M 4 4.625 L 4 11.375 L 1.28125 8.65625 C 0.92385 8.29885 0.92385 7.70125 1.28125 7.34375 L 4 4.625 z M 12.09375 4.71875 L 14.71875 7.34375 C 15.07625 7.70125 15.07625 8.29885 14.71875 8.65625 L 12.59375 10.78125 L 9.3125 7.5 L 12.09375 4.71875 z M 7.90625 8.90625 L 11.1875 12.1875 L 8.65625 14.71875 C 8.29885 15.07625 7.70125 15.07625 7.34375 14.71875 L 6 13.375 L 6 10.84375 L 7.90625 8.90625 z "
       transform="translate(-9379.308,4843.1988)"
       id="rect3859" />
  </g>
</svg>

<?xml version="1.0" encoding="UTF-8"?>
<svg id="a" width="16" height="16" version="1.1" xmlns="http://www.w3.org/2000/svg" xmlns:cc="http://creativecommons.org/ns#" xmlns:dc="http://purl.org/dc/elements/1.1/" xmlns:rdf="http://www.w3.org/1999/02/22-rdf-syntax-ns#">
	<metadata id="d">
		<rdf:RDF>
			<cc:Work rdf:about="">
				<dc:format>image/svg+xml</dc:format>
				<dc:type rdf:resource="http://purl.org/dc/dcmitype/StillImage"/>
				<dc:title/>
			</cc:Work>
		</rdf:RDF>
	</metadata>
	<defs>
		<style id="current-color-scheme" type="text/css">.ColorScheme-Text {color:#090d11;}.ColorScheme-Background{color:#ffffff;}</style>
	</defs>
	<path id="e" d="m8 0c-0.5263 0-1.0093 0.1968-1.375 0.5625l-1.3438 1.3438-0.28125 0.3125-1.7188 1.6875-2.7188 2.7188c-0.7515 0.7515-0.7515 1.9985 0 2.75l2.7188 2.7188 1.7188 1.6875 0.28125 0.3125 1.3438 1.3438c0.7515 0.7515 1.9985 0.7515 2.75 0l2.5312-2.5312 0.6875-0.71875 0.71875-0.6875 2.125-2.125c0.7515-0.7515 0.7515-1.9985 0-2.75l-2.625-2.625-0.71875-0.6875-0.6875-0.71875-1.9688-1.9375-0.0625-0.09375c-0.3657-0.3657-0.8487-0.5625-1.375-0.5625zm0 1c0.2332 0 0.47755 0.10255 0.65625 0.28125l2.0312 2.0312-4.6875 4.6875v-5.375l1.3438-1.3438c0.1788-0.1787 0.42305-0.28125 0.65625-0.28125zm-4 3.625v6.75l-2.7188-2.7188c-0.3574-0.3574-0.3574-0.955 0-1.3125l2.7188-2.7188zm8.0938 0.09375 2.625 2.625c0.3575 0.3575 0.3575 0.9551 0 1.3125l-2.125 2.125-3.2812-3.2812 2.7812-2.7812zm-4.1875 4.1875 3.2812 3.2812-2.5312 2.5312c-0.3574 0.3575-0.955 0.3575-1.3125 0l-1.3438-1.3438v-2.5312l1.9062-1.9375z" style="fill:currentColor;fill-opacity:.5;" class="ColorScheme-Background"/>
	<path id="c" d="m8 1c-0.2332 0-0.4775 0.1025-0.6563 0.2812l-1.3437 1.3438v5.375l4.6875-4.6875-2.0313-2.0313c-0.1787-0.1787-0.423-0.2812-0.6562-0.2812zm-4 3.625-2.7188 2.7187c-0.3574 0.3575-0.3574 0.9551 0 1.3125l2.7188 2.7188zm8.0937 0.094-2.7812 2.7813 3.2812 3.2812 2.125-2.125c0.3575-0.3574 0.3575-0.955 0-1.3125zm-4.1875 4.1875-1.9062 1.9375v2.5313l1.3437 1.3437c0.3575 0.3575 0.9551 0.3575 1.3125 0l2.5313-2.5312z" style="fill:currentColor;fill-opacity:.75;" class="ColorScheme-Text"/>
</svg>
